exported-svg/x-octagon.svg

<svg height="24" viewBox="0 0 24 24" width="24" xmlns="http://www.w3.org/2000/svg"><path d="m13.2071068 12.5 2.6464466 2.6464466c.1952621.1952622.1952621.5118446 0 .7071068-.1952622.1952621-.5118446.1952621-.7071068 0l-2.6464466-2.6464466-2.64644661 2.6464466c-.19526215.1952621-.51184463.1952621-.70710678 0-.19526215-.1952622-.19526215-.5118446 0-.7071068l2.64644659-2.6464466-2.64644659-2.64644661c-.19526215-.19526215-.19526215-.51184463 0-.70710678s.51184463-.19526215.70710678 0l2.64644661 2.64644659 2.6464466-2.64644659c.1952622-.19526215.5118446-.19526215.7071068 0 .1952621.19526215.1952621.51184463 0 .70710678zm-5.20066019-10.35355339c.09376819-.09376819.22094515-.14644661.35355339-.14644661h8.28c.1326082 0 .2597852.05267842.3535534.14644661l5.86 5.86c.0937682.09376819.1464466.22094515.1464466.35355339v8.28c0 .1326082-.0526784.2597852-.1464466.3535534l-5.86 5.86c-.0937682.0937682-.2209452.1464466-.3535534.1464466h-8.28c-.13260824 0-.2597852-.0526784-.35355339-.1464466l-5.86-5.86c-.09376819-.0937682-.14644661-.2209452-.14644661-.3535534v-8.28c0-.13260824.05267842-.2597852.14644661-.35355339zm.56066017.85355339-5.56710678 5.56710678v7.86578642l5.56710678 5.5671068h7.86578642l5.5671068-5.5671068v-7.86578642l-5.5671068-5.56710678z"/></svg>

<?xml version="1.0" encoding="UTF-8"?>
<svg width="24px" height="24px" viewBox="0 0 24 24" version="1.1" xmlns="http://www.w3.org/2000/svg" xmlns:xlink="http://www.w3.org/1999/xlink">
    <!-- Generator: Sketch 55.2 (78181) - https://sketchapp.com -->
    <title>x-octagon</title>
    <desc>Created with Sketch.</desc>
    <g id="x-octagon" stroke="none" stroke-width="1" fill="none" fill-rule="evenodd">
        <path d="M13.2071068,12.5 L15.8535534,15.1464466 C16.0488155,15.3417088 16.0488155,15.6582912 15.8535534,15.8535534 C15.6582912,16.0488155 15.3417088,16.0488155 15.1464466,15.8535534 L12.5,13.2071068 L9.85355339,15.8535534 C9.65829124,16.0488155 9.34170876,16.0488155 9.14644661,15.8535534 C8.95118446,15.6582912 8.95118446,15.3417088 9.14644661,15.1464466 L11.7928932,12.5 L9.14644661,9.85355339 C8.95118446,9.65829124 8.95118446,9.34170876 9.14644661,9.14644661 C9.34170876,8.95118446 9.65829124,8.95118446 9.85355339,9.14644661 L12.5,11.7928932 L15.1464466,9.14644661 C15.3417088,8.95118446 15.6582912,8.95118446 15.8535534,9.14644661 C16.0488155,9.34170876 16.0488155,9.65829124 15.8535534,9.85355339 L13.2071068,12.5 Z M8.00644661,2.14644661 C8.1002148,2.05267842 8.22739176,2 8.36,2 L16.64,2 C16.7726082,2 16.8997852,2.05267842 16.9935534,2.14644661 L22.8535534,8.00644661 C22.9473216,8.1002148 23,8.22739176 23,8.36 L23,16.64 C23,16.7726082 22.9473216,16.8997852 22.8535534,16.9935534 L16.9935534,22.8535534 C16.8997852,22.9473216 16.7726082,23 16.64,23 L8.36,23 C8.22739176,23 8.1002148,22.9473216 8.00644661,22.8535534 L2.14644661,16.9935534 C2.05267842,16.8997852 2,16.7726082 2,16.64 L2,8.36 C2,8.22739176 2.05267842,8.1002148 2.14644661,8.00644661 L8.00644661,2.14644661 Z M8.56710678,3 L3,8.56710678 L3,16.4328932 L8.56710678,22 L16.4328932,22 L22,16.4328932 L22,8.56710678 L16.4328932,3 L8.56710678,3 Z" id="Combined-Shape" fill="#000000" fill-rule="nonzero"></path>
    </g>
</svg>
